X: 041
T: Lady Charlotte Campble's Reel
%R: reel
M: C|
L: 1/8
Z: 2014 John Chambers <jc:trillian.mit.edu>
B: Chas & Sam Thompson "Twenty Four Country Dances for the Year 1802", London 1802, p.4 #1
F: http://folkopedia.efdss.org/images/4/41/Thompson_24_1802.PDF
K: Bb
F |\
B3f dBfd | edcB AFcA |\
B2bf dBfd | AGcA dBB :|\
z |\
f2db g2Ee | c2Aa f2Dd |
B2Gg edcB | AF ec dBB2 |\
fdba gfed | cAag fedc |\
BGgf edcB | AF ec dBB |]
% - - - - - - - - - - - - - - - - - - - - - - - - -
%%begintext align
%% First Lady sett to the Second Gen.t turn the Third
%% The Gen.t do the Same, lead down the Middle up
%% again to the top & cast off.
%%endtext
% - - - - - - - - - - - - - - - - - - - - - - - - -

%%sep 1 1 500
%%sep 1 1 500
